Ironsworn-Starforged/src/app/img/icons/asset-sniper.svg

<svg xmlns="http://www.w3.org/2000/svg" xmlns:svg="http://www.w3.org/2000/svg" fill-rule="evenodd" stroke-linecap="round" stroke-linejoin="round" stroke-miterlimit="10" clip-rule="evenodd" viewBox="0 0 64.353996 74.309402" xml:space="preserve"><g transform="translate(-3.8229 -3.3453003)"><clipPath id="a"><path d="M4.823 22.5v36L36 76.5l31.177-18v-36L36 4.5Z" clip-rule="nonzero"/></clipPath><g clip-path="url(#a)"><path fill="#3f7faa" fill-rule="nonzero" d="M67.1769 58.5v-36l-31.177-18-31.177 18v36l31.177 18z" opacity=".3"/><path fill="#fff" fill-rule="nonzero" d="M36 23.5462c-9.362 0-16.954 7.592-16.954 16.954 0 9.362 7.592 16.954 16.954 16.954 9.362 0 16.954-7.592 16.954-16.954 0-9.362-7.592-16.954-16.954-16.954"/><circle cy="-16.954" r="16.954" fill="none" stroke="#231f20" stroke-width="2" transform="matrix(-1 0 0 1 36 57.4542)"/><path fill="none" stroke="#231f20" d="M61.4307 40.5h-16.954m-16.9536 0h-16.954M36 65.9307v-16.954m0-16.9536v-16.954"/></g></g><path fill="none" stroke="#231f20" stroke-linecap="butt" stroke-linejoin="miter" stroke-width="2" d="M63.354 55.1546997v-36l-31.177-18-31.177 18v36l31.177 18z"/></svg>

<svg viewBox="0 0 301 338" xmlns="http://www.w3.org/2000/svg" fill-rule="evenodd" clip-rule="evenodd" stroke-linecap="round" stroke-linejoin="round" stroke-miterlimit="10"><g transform="translate(.5 .44) scale(4.16667)"><path fill="none" d="M0 0h72v81H0z"/><clipPath id="prefix__a"><path d="M0 0h72v81H0z"/></clipPath><g clip-path="url(#prefix__a)"><clipPath id="prefix__b"><path d="M4.823 22.5v36L36 76.5l31.177-18v-36L36 4.5l-31.177 18z" clip-rule="nonzero"/></clipPath><g clip-path="url(#prefix__b)"><path d="M67.177 58.5v-36L36 4.5l-31.177 18v36L36 76.5l31.177-18z" fill="#3f7faa" fill-rule="nonzero" opacity=".3"/><path d="M36 23.546c-9.362 0-16.954 7.592-16.954 16.954 0 9.362 7.592 16.954 16.954 16.954 9.362 0 16.954-7.592 16.954-16.954 0-9.362-7.592-16.954-16.954-16.954" fill="#fff" fill-rule="nonzero"/><circle cy="-16.954" r="16.954" fill="none" stroke="#231f20" stroke-width="2" transform="matrix(-1 0 0 1 36 57.454)"/><path d="M61.43 40.5H44.478M27.523 40.5H10.57M36 65.93V48.978M36 32.023V15.07" fill="none" stroke="#231f20"/></g><g><path d="M67.177 58.5v-36L36 4.5l-31.177 18v36L36 76.5l31.177-18z" fill="none" stroke="#231f20" stroke-width="2" stroke-linecap="butt" stroke-linejoin="miter"/></g></g></g></svg>
